X: 23
T:Mason's Apron (in G), The
M:C|
R:reel
K:G
gG ~G2 BAGE|DEGA BGAB|cA ~A2 ABAG|FGAB cdef|
gG ~G2 BAGE|DEGA BGAB|cBcd egge|1dBAB G2ef:|2dBAB ~G3A||
B2dBeBdB|~B2dBeBdB|c2ec fcec|~c2ec fcec|
B2dBeBdB|~B2dBeBdB|cBcd egge|1dBAB ~G3A:|2dBAB G2ef||

